X:1
T:JĒZUS SIRDS LITĀNIJA (3)
T:JĒZUS SIRDS LITĀNIJA (3)
C:Anonymous
L:1/8
M:4/4
K:Bb
V:1 treble nm=" " snm=" "
V:1
 GGFD (ED) C2 | GABA (G^F) G2 | G2 =FD (ED) C2 | (GA)BA (G^F) G2 | G2 (FD) ED C2 | %5
w: |||||
w: 1.,3. ri- e, e- lei- * son!|Ky- ri- e, e- lei- * son!|2. ste, e- lei- * son!|Chri- * ste, e- lei- * son!|Kris- tu, * klau- si mūs!|
w: |||||
w: |||||
w: |||||
w: |||||
 (GA) (BA) G^F G2 | G2 FD ED C2 | (GA)BA G^F G2 | x4 (FD) (ED) C2 | GABA (G^F) G2 | %10
w: |||||
w: Kris- * tu, * klau- si mūs!|Kris- tu, uz- klau- si mūs!|Kris- * tu, uz- klau- si mūs!|Tēvs no de- be- sīm,|ap- žē- lo- jies * par mums!|
w: |||sau- les Pes- tī- tājs,|ap- žē- lo- jies * par mums!|
w: |||Svē- * * tais Gars,|ap- žē- lo- jies * par mums!|
w: |||viens * vie- nīgs Dievs,|ap- žē- lo- jies * par mums!|
w: |||||
 x8 FD (ED)"^bas" C2 | GABA (G^F) G2 || %12
w: * Sirds, Visaug- visu~siržu~valdniece~un mi-|* * 7. * * * *|
w: * Sirds, mūžīgā * Tē-|ap- žē- lo- jies * par mums!|
w: * Sirds, * Jaunavas~Mātes~miesās~Svētā do-|ap- žē- lo- jies * par mums!|
w: * Sirds, ar~Dieva~Vārdu bū- tī-|ap- žē- lo- jies * par mums!|
w: * Sirds, bezgalīgā * jes-|* * 5. * * * *|
w: * Sirds, svētā * baz-|* * 6. * * * *|
"^P. Jēzu, lēnprātīgais un pazemīgu Sirdi. V. Veido mūsu sirdis pēc savas Sirds. Lūgsimies. Visvarenais, mūžīgais Dievs, raugies uz sava visumīļā Dēla Sirdi *un uz to slavu un gandarīšanu, ko viņa Tev sniedz grēcinieku vārdā, |un tiem, kas lūdz Tavu žēlsirdību, dāvā piedošanu tā paša Tava Dēla Jēzus Kristus vārdā, +kas ar Tevi Svētā Gara vienībā * dzīvo un valda mūžu mūžos. Amen." x8 FD (E"^-""^-""^-"D) C2 | %13
w: |
w: * * Dieva~Jērs,~kas~nes~pa sau- les|
w: * * Dieva~Jērs,~kas~nes~pa sau- les|
w: * * Dieva~Jērs,~kas~nes~pa sau- les|
w: |
w: |
 (GA) (BA) (G^F) G2 |] %14
w: |
w: sau- * * dzē * mūs, Kungs!|
w: uz- klau- * si * mūs, Kungs!|
w: ap- žē- lo- jies * par mums!|
w: |
w: |

